TF1/sum.svg

<svg xmlns="http://www.w3.org/2000/svg" viewBox="0 0 698 474" preserveAspectRatio="none" width="698" height="474">
 <path d="M0,0H698V474H0Z" style="fill: white;"></path>
 <g>
  <g transform="translate(70,47)">
   <path d="M0,0H558V379H0Z" style="fill: white; stroke: black; stroke-width: 1;"></path>
   <svg x="0" y="0" overflow="hidden" width="558" height="379" viewBox="0 0 558 379">
    <g>
     <path d="M3,18l6,4l5,3l6,4l5,4l6,3l5,4l6,3l6,4l5,4l6,3l5,4l6,4l6,3l5,4l6,3l5,4l6,4l5,3l6,4l6,4l5,3l6,4l5,3l6,3l6,3l5,3l6,1l5,1l6,-1l5,-2l6,-4l6,-6l5,-8l6,-9l5,-10l6,-9l5,-7l6,-4l6,-1l5,4l6,8l5,11l6,15l6,16l5,17l6,16l5,15l6,14l5,11l6,9l6,8l5,7l6,5l5,5l6,5l5,4l6,4l6,3l5,4l6,4l5,3l6,4l6,4l5,3l6,4l5,3l6,4l5,4l6,3l6,4l5,4l6,3l5,4l6,3l6,4l5,4l6,3l5,4l6,4l5,3l6,4l6,4l5,3l6,4l5,3l6,4l5,4l6,3l6,4l5,4l6,3l5,4l6,3l6,4l5,4l6,3l5,4l6,4l5,3" style="fill: none; stroke: red; stroke-width: 2;"></path>
    </g>
   </svg>
   <g>
    <g transform="translate(0,379)">
     <path d="M0,0h558M0,-14V0M11,-7V0M22,-7V0M33,-7V0M45,-7V0M56,-14V0M67,-7V0M78,-7V0M89,-7V0M100,-7V0M112,-14V0M123,-7V0M134,-7V0M145,-7V0M156,-7V0M167,-14V0M179,-7V0M190,-7V0M201,-7V0M212,-7V0M223,-14V0M234,-7V0M246,-7V0M257,-7V0M268,-7V0M279,-14V0M290,-7V0M301,-7V0M312,-7V0M324,-7V0M335,-14V0M346,-7V0M357,-7V0M368,-7V0M379,-7V0M391,-14V0M402,-7V0M413,-7V0M424,-7V0M435,-7V0M446,-14V0M458,-7V0M469,-7V0M480,-7V0M491,-7V0M502,-14V0M513,-7V0M525,-7V0M536,-7V0M547,-7V0M558,-14V0" style="stroke: black; stroke-width: 1;"></path>
     <g font-family="Arial" font-size="17" space="preserve" fill="black" text-anchor="middle">
      <text dy=".8em">
       0
      </text>
      <text dy=".8em" transform="translate(56)">
       1
      </text>
      <text dy=".8em" transform="translate(112)">
       2
      </text>
      <text dy=".8em" transform="translate(167)">
       3
      </text>
      <text dy=".8em" transform="translate(223)">
       4
      </text>
      <text dy=".8em" transform="translate(279)">
       5
      </text>
      <text dy=".8em" transform="translate(335)">
       6
      </text>
      <text dy=".8em" transform="translate(391)">
       7
      </text>
      <text dy=".8em" transform="translate(446)">
       8
      </text>
      <text dy=".8em" transform="translate(502)">
       9
      </text>
      <text dy=".8em" transform="translate(558)">
       10
      </text>
     </g>
    </g>
    <g>
     <path d="M0,0v379M21,379H0M11,361H0M11,343H0M11,325H0M21,306H0M11,288H0M11,270H0M11,252H0M21,234H0M11,216H0M11,198H0M11,179H0M21,161H0M11,143H0M11,125H0M11,107H0M21,89H0M11,71H0M11,53H0M11,34H0M21,16H0" style="stroke: black; stroke-width: 1;"></path>
     <g font-family="Arial" font-size="17" space="preserve" fill="black" text-anchor="end">
      <text dy=".4em" transform="translate(-2,379)">
       0
      </text>
      <text dy=".4em" transform="translate(-2,306)">
       2
      </text>
      <text dy=".4em" transform="translate(-2,234)">
       4
      </text>
      <text dy=".4em" transform="translate(-2,161)">
       6
      </text>
      <text dy=".4em" transform="translate(-2,89)">
       8
      </text>
      <text dy=".4em" transform="translate(-2,16)">
       10
      </text>
     </g>
    </g>
   </g>
  </g>
  <g transform="translate(314,2)" font-family="Arial" font-size="21" space="preserve">
   <text fill="black" text-anchor="middle" dy=".4em" transform="translate(35,13)">
    f1+f2
   </text>
  </g>
 </g>
</svg>

<svg xmlns="http://www.w3.org/2000/svg" viewBox="0 0 698 474" preserveAspectRatio="none" width="698" height="474">
 <path d="M0,0H698V474H0Z" style="fill: white;"></path>
 <g>
  <g transform="translate(70,47)">
   <path d="M0,0H558V379H0Z" style="fill: white; stroke: black; stroke-width: 1;"></path>
   <svg x="0" y="0" overflow="hidden" width="558" height="379" viewBox="0 0 558 379">
    <g>
     <path d="M3,18L9,22L14,25L20,29L25,33L31,36L36,40L42,43L48,47L53,51L59,54L64,58L70,62L76,65L81,69L87,72L92,76L98,80L103,83L109,87L115,91L120,94L126,98L131,101L137,104L143,107L148,110L154,111L159,112L165,111L170,109L176,105L182,99L187,91L193,82L198,72L204,63L209,56L215,52L221,51L226,55L232,63L237,74L243,89L249,105L254,122L260,138L265,153L271,167L276,178L282,187L288,195L293,202L299,207L304,212L310,217L315,221L321,225L327,228L332,232L338,236L343,239L349,243L355,247L360,250L366,254L371,257L377,261L382,265L388,268L394,272L399,276L405,279L410,283L416,286L422,290L427,294L433,297L438,301L444,305L449,308L455,312L461,316L466,319L472,323L477,326L483,330L488,334L494,337L500,341L505,345L511,348L516,352L522,355L528,359L533,363L539,366L544,370L550,374L555,377" style="fill: none; stroke: red; stroke-width: 2;"></path>
    </g>
   </svg>
   <g>
    <g transform="translate(0,379)">
     <path d="M0,0h558M0,-14V0M11,-7V0M22,-7V0M33,-7V0M45,-7V0M56,-14V0M67,-7V0M78,-7V0M89,-7V0M100,-7V0M112,-14V0M123,-7V0M134,-7V0M145,-7V0M156,-7V0M167,-14V0M179,-7V0M190,-7V0M201,-7V0M212,-7V0M223,-14V0M234,-7V0M246,-7V0M257,-7V0M268,-7V0M279,-14V0M290,-7V0M301,-7V0M312,-7V0M324,-7V0M335,-14V0M346,-7V0M357,-7V0M368,-7V0M379,-7V0M391,-14V0M402,-7V0M413,-7V0M424,-7V0M435,-7V0M446,-14V0M458,-7V0M469,-7V0M480,-7V0M491,-7V0M502,-14V0M513,-7V0M525,-7V0M536,-7V0M547,-7V0M558,-14V0" style="stroke: black; stroke-width: 1;"></path>
     <g font-family="Arial" font-size="17" space="preserve" fill="black" text-anchor="middle">
      <text dy=".8em">
       0
      </text>
      <text dy=".8em" transform="translate(56)">
       1
      </text>
      <text dy=".8em" transform="translate(112)">
       2
      </text>
      <text dy=".8em" transform="translate(167)">
       3
      </text>
      <text dy=".8em" transform="translate(223)">
       4
      </text>
      <text dy=".8em" transform="translate(279)">
       5
      </text>
      <text dy=".8em" transform="translate(335)">
       6
      </text>
      <text dy=".8em" transform="translate(391)">
       7
      </text>
      <text dy=".8em" transform="translate(446)">
       8
      </text>
      <text dy=".8em" transform="translate(502)">
       9
      </text>
      <text dy=".8em" transform="translate(558)">
       10
      </text>
     </g>
    </g>
    <g>
     <path d="M0,0v379M21,379H0M11,361H0M11,343H0M11,325H0M21,306H0M11,288H0M11,270H0M11,252H0M21,234H0M11,216H0M11,198H0M11,179H0M21,161H0M11,143H0M11,125H0M11,107H0M21,89H0M11,71H0M11,53H0M11,34H0M21,16H0" style="stroke: black; stroke-width: 1;"></path>
     <g font-family="Arial" font-size="17" space="preserve" fill="black" text-anchor="end">
      <text dy=".4em" transform="translate(-2,379)">
       0
      </text>
      <text dy=".4em" transform="translate(-2,306)">
       2
      </text>
      <text dy=".4em" transform="translate(-2,234)">
       4
      </text>
      <text dy=".4em" transform="translate(-2,161)">
       6
      </text>
      <text dy=".4em" transform="translate(-2,89)">
       8
      </text>
      <text dy=".4em" transform="translate(-2,16)">
       10
      </text>
     </g>
    </g>
   </g>
  </g>
  <g transform="translate(314,2)" font-family="Arial" font-size="21" space="preserve">
   <text fill="black" text-anchor="middle" dy=".4em" transform="translate(35,13)">
    f1+f2
   </text>
  </g>
 </g>
</svg>
